X:40
T: Magas hegyen nem mehetek
O: Bogdánfalva (Bákó), 1929
Q: 1/8=192
M:6/8
L:1/4
K:G
G A/ B B/ | A/ B G c/ | 
B B/ A A/ | G3/2 z3/2 | 
G A/ B B/ | A B/ G E/ | 
A B/ G =F/ | E3/2 z3/2 |

